images/twitter.svg

<svg width="37" height="37" viewBox="0 0 37 37" fill="none" xmlns="http://www.w3.org/2000/svg">
<path d="M18.7815 0C21.3034 0 23.6659 0.474432 25.8689 1.4233C28.072 2.37216 29.9996 3.65888 31.6519 5.28345C33.3041 6.90802 34.6086 8.81294 35.5651 10.9982C36.5217 13.1835 37 15.5269 37 18.0284C37 20.53 36.5217 22.8734 35.5651 25.0587C34.6086 27.2439 33.3041 29.156 31.6519 30.795C29.9996 32.4339 28.072 33.7278 25.8689 34.6767C23.6659 35.6256 21.3034 36.1 18.7815 36.1C16.2597 36.1 13.8972 35.6256 11.6942 34.6767C9.49115 33.7278 7.57074 32.4339 5.93297 30.795C4.29519 29.156 2.99801 27.2439 2.04143 25.0587C1.08486 22.8734 0.606567 20.53 0.606567 18.0284C0.606567 15.5269 1.08486 13.1835 2.04143 10.9982C2.99801 8.81294 4.29519 6.90802 5.93297 5.28345C7.57074 3.65888 9.49115 2.37216 11.6942 1.4233C13.8972 0.474432 16.2597 0 18.7815 0ZM27.8256 14.1467C28.6662 13.5141 29.4054 12.7522 30.0431 11.8608C29.6373 12.0333 29.2242 12.1771 28.8039 12.2921C28.3836 12.4071 27.9415 12.4934 27.4777 12.5509C27.9415 12.2634 28.3473 11.9111 28.6952 11.4942C29.043 11.0773 29.2894 10.6244 29.4343 10.1356C28.9995 10.3656 28.5502 10.5741 28.0864 10.761C27.6226 10.9479 27.1444 11.0845 26.6516 11.1707C26.2458 10.7682 25.7675 10.4375 25.2167 10.1787C24.666 9.91995 24.0572 9.79056 23.3905 9.79056C22.7818 9.79056 22.2093 9.90558 21.673 10.1356C21.1368 10.3656 20.673 10.6819 20.2816 11.0845C19.8903 11.487 19.5787 11.9543 19.3468 12.4862C19.1149 13.0181 18.999 13.586 18.999 14.1898C18.999 14.3624 19.0062 14.5349 19.0207 14.7074C19.0352 14.8799 19.0569 15.0381 19.0859 15.1818C17.2597 15.0956 15.564 14.6499 13.9987 13.8448C12.4333 13.0397 11.0999 11.9614 9.99842 10.61C9.5926 11.2714 9.38969 12.0046 9.38969 12.8097C9.38969 13.5573 9.57086 14.2545 9.9332 14.9015C10.2955 15.5484 10.7666 16.0732 11.3463 16.4757C10.5927 16.4182 9.92596 16.2313 9.34621 15.9151V15.9582C9.34621 17.0508 9.68681 17.9925 10.368 18.7832C11.0492 19.5739 11.8971 20.0699 12.9116 20.2712C12.7087 20.3287 12.5131 20.3718 12.3246 20.4006C12.1362 20.4293 11.9406 20.4437 11.7377 20.4437C11.5927 20.4437 11.455 20.4365 11.3246 20.4222C11.1941 20.4078 11.0565 20.3862 10.9115 20.3575C11.2014 21.2201 11.7159 21.9389 12.4551 22.514C13.1943 23.089 14.0566 23.3766 15.0422 23.3766C14.2885 23.9804 13.4407 24.4477 12.4986 24.7783C11.5565 25.109 10.5782 25.2743 9.56362 25.2743C9.36071 25.2743 9.17229 25.2671 8.99837 25.2527C8.82444 25.2384 8.65052 25.2168 8.4766 25.1881C9.46216 25.8206 10.5274 26.3094 11.6724 26.6545C12.8174 26.9995 14.0132 27.172 15.2596 27.172C17.2887 27.172 19.0859 26.7911 20.6512 26.0291C22.2165 25.2671 23.5282 24.2895 24.5862 23.0962C25.6443 21.903 26.4487 20.5659 26.9994 19.0851C27.5502 17.6043 27.8256 16.1451 27.8256 14.7074V14.1467Z" fill="white"/>
</svg>

<svg xmlns="http://www.w3.org/2000/svg" width="37" height="37" fill="none" viewBox="0 0 37 37"><path fill="#fff" d="M18.782 0q3.782 0 7.087 1.423t5.783 3.86a18.1 18.1 0 0 1 3.913 5.715Q37 14.277 37 18.028q0 3.753-1.435 7.03a18.4 18.4 0 0 1-3.913 5.737 18.5 18.5 0 0 1-5.783 3.882Q22.564 36.1 18.782 36.1q-3.783 0-7.088-1.423-3.304-1.424-5.761-3.882a18.6 18.6 0 0 1-3.892-5.736Q.607 21.78.607 18.029q0-3.753 1.434-7.03Q3.476 7.72 5.933 5.282q2.457-2.435 5.761-3.86Q15 0 18.782 0m9.044 14.147q1.26-.95 2.217-2.286a9.4 9.4 0 0 1-2.565.69 5 5 0 0 0 1.217-1.057 3.8 3.8 0 0 0 .74-1.358q-.653.345-1.349.625a7 7 0 0 1-1.434.41 5.1 5.1 0 0 0-1.435-.992 4.24 4.24 0 0 0-1.826-.388 4.3 4.3 0 0 0-3.11 1.293q-.585.604-.934 1.402a4.2 4.2 0 0 0-.348 1.704q0 .258.022.517.021.26.065.475-2.74-.13-5.087-1.337a12.45 12.45 0 0 1-4-3.235 4.1 4.1 0 0 0-.61 2.2q0 1.12.544 2.092a4.65 4.65 0 0 0 1.413 1.574q-1.13-.087-2-.56v.042q0 1.639 1.022 2.825a4.4 4.4 0 0 0 2.544 1.488q-.305.086-.587.13a4 4 0 0 1-1 .021 5 5 0 0 1-.413-.064 4.5 4.5 0 0 0 1.543 2.156q1.11.863 2.587.863a8.6 8.6 0 0 1-2.543 1.401 8.8 8.8 0 0 1-3.5.475 7 7 0 0 1-.522-.065q1.477.949 3.195 1.467 1.717.517 3.588.517 3.044 0 5.391-1.143t3.935-2.933A12.6 12.6 0 0 0 27 19.086q.827-2.222.827-4.379z"/></svg>
